layouts/icon-pack/weapon_pickaxe.svg

<?xml version="1.0" encoding="UTF-8"?>
<svg width="1200pt" height="1200pt" version="1.1" viewBox="0 0 1200 1200" xmlns="http://www.w3.org/2000/svg">
 <path d="m773.33 48.332c-11.668-8.332-26.668-8.332-38.332 0-108.33 73.332-210 165-303.33 261.67-26.668-23.332-66.668-21.668-91.668 5-21.668 25-18.332 65 3.332 88.332-131.66 153.34-243.33 315-330 453.34-21.668 33.332 26.668 68.332 51.668 38.332 136.67-161.67 258.33-286.67 363.33-385 5-3.332 11.668-3.332 15 0l578.33 616.67c35 38.332 95 45 135 11.668 45-38.332 46.668-105 5-145l-611.66-573.34c-5-5-5-11.668 0-16.668 151.67-125 260-185 321.67-211.67 23.332-10 30-43.332 10-58.332z" fill="#fff"/>
</svg>

<?xml version="1.0" encoding="UTF-8" standalone="no"?>
<!DOCTYPE svg PUBLIC "-//W3C//DTD SVG 1.1//EN" "http://www.w3.org/Graphics/SVG/1.1/DTD/svg11.dtd">
<svg width="100%" height="100%" viewBox="0 0 512 484" version="1.1" xmlns="http://www.w3.org/2000/svg" xmlns:xlink="http://www.w3.org/1999/xlink" xml:space="preserve" xmlns:serif="http://www.serif.com/" style="fill-rule:evenodd;clip-rule:evenodd;stroke-linejoin:round;stroke-miterlimit:2;">
    <g transform="matrix(1,0,0,1,-7.88766,-42.083)">
        <g transform="matrix(0.432498,0,0,0.432498,4.47627,23.8822)">
            <path d="M773.33,48.332C761.662,40 746.662,40 734.998,48.332C626.668,121.664 524.998,213.332 431.668,310.002C405,286.67 365,288.334 340,315.002C318.332,340.002 321.668,380.002 343.332,403.334C211.672,556.674 100.002,718.334 13.332,856.674C-8.336,890.006 40,925.006 65,895.006C201.67,733.336 323.33,608.336 428.33,510.006C433.33,506.674 439.998,506.674 443.33,510.006L1021.66,1126.68C1056.66,1165.01 1116.66,1171.68 1156.66,1138.34C1201.66,1100.01 1203.33,1033.34 1161.66,993.344L550,420.004C545,415.004 545,408.336 550,403.336C701.67,278.336 810,218.336 871.67,191.666C895.002,181.666 901.67,148.334 881.67,133.334L773.33,48.332Z" style="fill:white;fill-rule:nonzero;"/>
        </g>
    </g>
</svg>
